X:5560
T:Ril Tommy Peoples
O:england
M:4/4
L:1/8
S:Ceol Aduaidh -- Mairead Ni Mhaonaigh/Frankie Kennedy
N:From Ciaran Kelly
K:G
G2 BG cABG| ADDE FGAF|G2 BG cABG|Addc BG G2:|
g2 dg egdg|g2 bg fgaf|g2 dg egdg|cBAd BG G2:|


